build/images/SVG/1/confused-selected.svg

<!-- Generated by IcoMoon.io -->
<svg version="1.1" xmlns="http://www.w3.org/2000/svg" width="32" height="32" viewBox="0 0 32 32">
<title>confused-selected</title>
<path fill="#f89820" d="M27.314 4.686c-3.022-3.022-7.040-4.686-11.314-4.686s-8.292 1.664-11.314 4.686c-3.022 3.022-4.686 7.040-4.686 11.314s1.664 8.292 4.686 11.314c3.022 3.022 7.040 4.686 11.314 4.686s8.292-1.664 11.314-4.686c3.022-3.022 4.686-7.040 4.686-11.314s-1.664-8.292-4.686-11.314zM21.718 10.055c0.847 0 1.534 0.687 1.534 1.534s-0.687 1.534-1.534 1.534-1.534-0.687-1.534-1.534 0.687-1.534 1.534-1.534zM10.282 10.055c0.847 0 1.534 0.687 1.534 1.534s-0.687 1.534-1.534 1.534c-0.847 0-1.534-0.687-1.534-1.534s0.687-1.534 1.534-1.534zM25.072 22.928l-3.57-0.984-3.67 1.011-3.67-1.011-3.67 1.011-3.771-1.039 0.202-0.731 3.569 0.984 3.67-1.011 3.67 1.011 3.67-1.011 3.771 1.039-0.201 0.731z"></path>
</svg>

<svg xmlns="http://www.w3.org/2000/svg" width="32" height="32" viewBox="0 0 32 32"><title>confused-selected</title><path fill="#f89820" d="M27.314 4.686C24.292 1.664 20.274 0 16 0S7.708 1.664 4.686 4.686C1.664 7.708 0 11.726 0 16s1.664 8.292 4.686 11.314C7.708 30.336 11.726 32 16 32s8.292-1.664 11.314-4.686C30.336 24.292 32 20.274 32 16s-1.664-8.292-4.686-11.314zm-5.596 5.369a1.534 1.534 0 1 1 0 3.069 1.534 1.534 0 0 1 0-3.069zm-11.436 0a1.534 1.534 0 1 1 0 3.069 1.534 1.534 0 0 1 0-3.069zm14.79 12.873l-3.57-.984-3.67 1.011-3.67-1.011-3.67 1.011-3.771-1.039.202-.731 3.569.984 3.67-1.011 3.67 1.011 3.67-1.011 3.771 1.039-.201.731z"/></svg>
